X:209
T:Steirische Jodler und Taenze Nr. 1 - 48 (7.)
C:traditionell
A:Salzkammergut
S:MIDI erhalten von Christian Amon. Nach einer kopie im besitz von Johann Stoeckl eines manuscriptes. Stoeckl(zitiert von Amon): "diese sammlung wurde 1935 im hause der familie Hohenlohe-Schillingfuerst gefunden. Sie wurde von einem der beiden brueder Steinegger 1866 verfasst. Die originale sind im Ausseer Kammerhofmuseum".
M:3/4
L:1/8
K:G
V:1
d4 B2 | c4 A2 | d3 a f2 | d3 b g2 |\
d4 B2 | c4 A2 | d3 a f2 | g4 z2 |*
V:2
B4 G2 | A4 F2 | A3 f d2| B3 g d2 |\
B4 G2 | A4 F2 | A3 f d2 | B4 z2 |*
W:transcriptions-anmerkung: im MIDI:
V:1
(3 d 4 -dB4 - B | c3 ->c/2 A3 -A/2 | d3 a f2 | d3 b g2 |\
(3 d 4 -dB4 - B | c3 ->c/2 A3 -A/2 | d3 a f2 | g4 z2 |*
